X: 41231
T: Trousers, The
R: slide
M: 12/8
K: Gmajor
|:B2e dBA G3 G2A|BcB BAG A5B|
c2A B2G A2G E2D|E2A GED E6:|
e3 eef g2f e2d|e2a aga b2g a2g|
e2f g2e d2e g2e|d3 BAG A6|
e3 eef g2f e2d|e2a aga b2g a2g|
efg d2g edB d2B|A3 ABd e6|

